build/Karasa-Jaga/scalable/actions/document-properties-symbolic.svg

<svg height="16" width="16" xmlns="http://www.w3.org/2000/svg" xmlns:xlink="http://www.w3.org/1999/xlink"><linearGradient id="a" gradientTransform="matrix(1 0 0 -1 0 16)" gradientUnits="userSpaceOnUse" x1="8.21288" x2="8.21288" y1=".958855" y2="14.985587"><stop offset="0" stop-color="#bebebe" stop-opacity=".698"/><stop offset="1" stop-color="#bebebe"/></linearGradient><g fill="#bebebe"><g fill="#bebebe" transform="matrix(.82578026 0 0 .82578026 18.580309 -2.825463)"><path d="m2 1-.0605469 15h7.1992188a.86467046.86467046 0 0 1 -.0039063-.068359v-.457032a4.4999998 4.4999998 0 0 1 -.1425781-.166015l-.4042969.404297a.86467046.86467046 0 0 1 -1.2226562 0l-.7109375-.712891h-3.6542969v-13h7l3 2.5v1.7910156l.207031-.2070312a.86467046.86467046 0 0 1 .792969-.2324219v-1.3515625l-3.345703-3.5z" fill-opacity=".902043" stroke-width=".82578" transform="matrix(1.2109759 0 0 1.2109759 -22.500307 3.421568)"/><path d="m-10.390547 4.6325435v4.2384157h3.6329272 1.210976l-4.051223-4.2384157z"/></g><g transform="matrix(.71912832814 0 0 .71912832814 5.14527871149 5.1452785629)"><path d="m6.75 15v-2.1875c-.4487872-.117378-.8597203-.301606-1.25-.53125l-1.5625 1.5625-1.78125-1.78125 1.5625-1.5625c-.2296441-.39028-.4138722-.8012128-.53125-1.25h-2.1875v-2.5h2.1875c.1173778-.4487872.3016059-.85972.53125-1.25l-1.5625-1.5625 1.78125-1.78125 1.5625 1.5625c.3902797-.229644.8012128-.413872 1.25-.53125v-2.1875h2.5v2.1875c.4487872.117378.85972.301606 1.25.53125l1.5625-1.5625 1.78125 1.78125-1.5625 1.5625c.229644.39028.413872.8012128.53125 1.25h2.1875v2.5h-2.1875c-.117378.4487872-.301606.85972-.53125 1.25l1.5625 1.5625-1.78125 1.78125-1.5625-1.5625c-.39028.229644-.8012128.413872-1.25.53125v2.1875zm1.25-5c1.1045695 0 2-.8954305 2-2s-.8954305-2-2-2-2 .8954305-2 2 .8954305 2 2 2z" fill="url(#a)"/><path d="m6.75 1v2.1875c-.4487872.117378-.8597203.301606-1.25.53125l-1.5625-1.5625-1.78125 1.78125 1.5625 1.5625c-.2296441.39028-.4138722.8012128-.53125 1.25h-2.1875v2.5h2.1875c.1173778.4487872.3016059.85972.53125 1.25l-1.5625 1.5625 1.78125 1.78125 1.5625-1.5625c.3902797.229644.8012128.413872 1.25.53125v2.1875h2.5v-2.1875c.4487872-.117378.85972-.301606 1.25-.53125l1.5625 1.5625 1.78125-1.78125-1.5625-1.5625c.229644-.39028.413872-.8012128.53125-1.25h2.1875v-2.5h-2.1875c-.117378-.4487872-.301606-.85972-.53125-1.25l1.5625-1.5625-1.78125-1.78125-1.5625 1.5625c-.39028-.229644-.8012128-.413872-1.25-.53125v-2.1875zm.875 1h.75v2.03125c.827336.077246 1.5840203.4025641 2.1875.90625l1.40625-1.4375.53125.53125-1.4375 1.40625c.503686.6034797.829004 1.3601641.90625 2.1875h2.03125v.75h-2.03125c-.07725.827336-.402564 1.5840203-.90625 2.1875l1.4375 1.40625-.53125.53125-1.40625-1.4375c-.6034797.503686-1.360164.829004-2.1875.90625v2.03125h-.75v-2.03125c-.827336-.077246-1.5840203-.402564-2.1875-.90625l-1.40625 1.4375-.53125-.53125 1.4375-1.40625c-.5036859-.6034797-.8290038-1.360164-.90625-2.1875h-2.03125v-.75h2.03125c.0772462-.8273359.4025641-1.5840203.90625-2.1875l-1.4375-1.40625.53125-.53125 1.40625 1.4375c.6034797-.5036859 1.360164-.8290038 2.1875-.90625z" fill="#bebebe"/></g></g></svg>

<?xml version="1.0" encoding="UTF-8" standalone="no"?>
<!-- Created with Inkscape (http://www.inkscape.org/) -->

<svg
   xmlns:dc="http://purl.org/dc/elements/1.1/"
   xmlns:cc="http://creativecommons.org/ns#"
   xmlns:rdf="http://www.w3.org/1999/02/22-rdf-syntax-ns#"
   xmlns:svg="http://www.w3.org/2000/svg"
   xmlns="http://www.w3.org/2000/svg"
   xmlns:xlink="http://www.w3.org/1999/xlink"
   xmlns:sodipodi="http://sodipodi.sourceforge.net/DTD/sodipodi-0.dtd"
   xmlns:inkscape="http://www.inkscape.org/namespaces/inkscape"
   width="16px"
   height="16px"
   id="svg3925"
   version="1.1"
   inkscape:version="0.92.4 (unknown)"
   sodipodi:docname="document-properties-symbolic.svg">
  <defs
     id="defs3927">
    <linearGradient
       inkscape:collect="always"
       xlink:href="#linearGradient3569"
       id="linearGradient4548"
       gradientUnits="userSpaceOnUse"
       x1="136.23065"
       y1="40.918156"
       x2="54.675591"
       y2="-40.636906" />
    <linearGradient
       id="linearGradient3569">
      <stop
         id="stop3571"
         offset="0"
         style="stop-color:#161616;stop-opacity:1;" />
      <stop
         id="stop3573"
         offset="1"
         style="stop-color:#3a3a3a;stop-opacity:1;" />
    </linearGradient>
    <linearGradient
       id="linearGradient4565">
      <stop
         id="stop4567"
         offset="0"
         style="stop-color:#161616;stop-opacity:1;" />
      <stop
         id="stop4569"
         offset="1"
         style="stop-color:#3a3a3a;stop-opacity:1;" />
    </linearGradient>
    <linearGradient
       gradientTransform="matrix(1,0,0,-1,0,16)"
       gradientUnits="userSpaceOnUse"
       xlink:href="#linearGradient3798-3"
       id="linearGradient3899"
       y2="14.985587"
       x2="8.2128801"
       y1="0.95885509"
       x1="8.2128801" />
    <linearGradient
       id="linearGradient3798-3">
      <stop
         offset="0"
         style="stop-color:#bebebe;stop-opacity:0.69800001"
         id="stop3800-9" />
      <stop
         offset="1"
         style="stop-color:#bebebe;stop-opacity:1"
         id="stop3802-0" />
    </linearGradient>
  </defs>
  <sodipodi:namedview
     id="base"
     pagecolor="#ffffff"
     bordercolor="#666666"
     borderopacity="1.0"
     inkscape:pageopacity="0.0"
     inkscape:pageshadow="2"
     inkscape:zoom="15.696217"
     inkscape:cx="7.2601819"
     inkscape:cy="2.0551064"
     inkscape:current-layer="g7227"
     showgrid="true"
     inkscape:grid-bbox="true"
     inkscape:document-units="px"
     inkscape:window-width="1366"
     inkscape:window-height="714"
     inkscape:window-x="0"
     inkscape:window-y="28"
     inkscape:window-maximized="1"
     showguides="true"
     inkscape:guide-bbox="true">
    <inkscape:grid
       type="xygrid"
       id="grid7250" />
  </sodipodi:namedview>
  <metadata
     id="metadata3930">
    <rdf:RDF>
      <cc:Work
         rdf:about="">
        <dc:format>image/svg+xml</dc:format>
        <dc:type
           rdf:resource="http://purl.org/dc/dcmitype/StillImage" />
        <dc:title></dc:title>
      </cc:Work>
    </rdf:RDF>
  </metadata>
  <g
     id="layer1"
     inkscape:label="Layer 1"
     inkscape:groupmode="layer">
    <g
       id="g7227"
       transform="matrix(0.82578026,0,0,0.82578026,18.580309,-2.825463)">
      <path
         style="fill:#bebebe;fill-opacity:0.9020427;stroke:none;stroke-width:0.82578027"
         d="M 2.5 1 L 2.4394531 16 L 9.1386719 16 A 0.86449343 0.86449343 0 0 1 9.1347656 15.931641 L 9.1347656 15.5 L 8.7988281 15.5 L 8.5878906 15.710938 A 0.86449343 0.86449343 0 0 1 7.3652344 15.710938 L 7.1542969 15.5 L 3 15.5 L 3 1.5 L 10 1.5 L 13.5 4.5 L 13.5 5.8945312 A 0.86449343 0.86449343 0 0 1 14 5.8535156 L 14 4.4140625 L 10.654297 1 L 2.5 1 z "
         transform="matrix(1.2109759,0,0,1.2109759,-22.500307,3.4215676)"
         id="rect7217" />
      <path
         sodipodi:nodetypes="cccccc"
         inkscape:connector-curvature="0"
         id="path7212"
         d="M -9.90625,4.71875 -9.759677,8.2020155 -6.375,8.25 l 0,-0.53125 -3.09375,-3 z"
         style="fill:#bebebe;fill-opacity:1;stroke:none" />
      <g
         transform="matrix(0.87084708,0,0,0.87084708,-16.269498,9.6523761)"
         id="g8103">
        <path
           d="M 6.75,15 V 12.8125 C 6.3012128,12.695122 5.8902797,12.510894 5.5,12.28125 L 3.9375,13.84375 2.15625,12.0625 3.71875,10.5 C 3.4891059,10.10972 3.3048778,9.6987872 3.1875,9.25 H 1 V 6.75 H 3.1875 C 3.3048778,6.3012128 3.4891059,5.89028 3.71875,5.5 L 2.15625,3.9375 3.9375,2.15625 5.5,3.71875 C 5.8902797,3.489106 6.3012128,3.304878 6.75,3.1875 V 1 h 2.5 v 2.1875 c 0.4487872,0.117378 0.85972,0.301606 1.25,0.53125 L 12.0625,2.15625 13.84375,3.9375 12.28125,5.5 c 0.229644,0.39028 0.413872,0.8012128 0.53125,1.25 H 15 v 2.5 h -2.1875 c -0.117378,0.4487872 -0.301606,0.85972 -0.53125,1.25 l 1.5625,1.5625 L 12.0625,13.84375 10.5,12.28125 C 10.10972,12.510894 9.6987872,12.695122 9.25,12.8125 V 15 Z M 8,10 C 9.1045695,10 10,9.1045695 10,8 10,6.8954305 9.1045695,6 8,6 6.8954305,6 6,6.8954305 6,8 c 0,1.1045695 0.8954305,2 2,2 z"
           inkscape:connector-curvature="0"
           id="path3002"
           style="color:#bebebe;display:inline;overflow:visible;visibility:visible;fill:url(#linearGradient3899);fill-opacity:1;fill-rule:nonzero;stroke:none;stroke-width:1;marker:none;enable-background:accumulate" />
        <path
           d="M 6.75,1 V 3.1875 C 6.3012128,3.304878 5.8902797,3.489106 5.5,3.71875 L 3.9375,2.15625 2.15625,3.9375 3.71875,5.5 C 3.4891059,5.89028 3.3048778,6.3012128 3.1875,6.75 H 1 v 2.5 h 2.1875 c 0.1173778,0.4487872 0.3016059,0.85972 0.53125,1.25 L 2.15625,12.0625 3.9375,13.84375 5.5,12.28125 c 0.3902797,0.229644 0.8012128,0.413872 1.25,0.53125 V 15 h 2.5 v -2.1875 c 0.4487872,-0.117378 0.85972,-0.301606 1.25,-0.53125 l 1.5625,1.5625 L 13.84375,12.0625 12.28125,10.5 C 12.510894,10.10972 12.695122,9.6987872 12.8125,9.25 H 15 V 6.75 H 12.8125 C 12.695122,6.3012128 12.510894,5.89028 12.28125,5.5 L 13.84375,3.9375 12.0625,2.15625 10.5,3.71875 C 10.10972,3.489106 9.6987872,3.304878 9.25,3.1875 V 1 Z m 0.875,1 h 0.75 V 4.03125 C 9.202336,4.108496 9.9590203,4.4338141 10.5625,4.9375 L 11.96875,3.5 12.5,4.03125 11.0625,5.4375 c 0.503686,0.6034797 0.829004,1.3601641 0.90625,2.1875 H 14 v 0.75 H 11.96875 C 11.8915,9.202336 11.566186,9.9590203 11.0625,10.5625 L 12.5,11.96875 11.96875,12.5 10.5625,11.0625 C 9.9590203,11.566186 9.202336,11.891504 8.375,11.96875 V 14 H 7.625 V 11.96875 C 6.797664,11.891504 6.0409797,11.566186 5.4375,11.0625 L 4.03125,12.5 3.5,11.96875 4.9375,10.5625 C 4.4338141,9.9590203 4.1084962,9.202336 4.03125,8.375 H 2 V 7.625 H 4.03125 C 4.1084962,6.7976641 4.4338141,6.0409797 4.9375,5.4375 L 3.5,4.03125 4.03125,3.5 5.4375,4.9375 C 6.0409797,4.4338141 6.797664,4.1084962 7.625,4.03125 Z"
           inkscape:connector-curvature="0"
           id="path3002-1"
           style="color:#bebebe;display:inline;overflow:visible;visibility:visible;fill:#bebebe;fill-opacity:1;fill-rule:nonzero;stroke:none;stroke-width:1;marker:none;enable-background:accumulate" />
      </g>
      <g
         id="g869"
         transform="matrix(0.87084708,0,0,0.87084708,-16.269498,9.6523761)"
         style="fill:#ffff00" />
    </g>
  </g>
</svg>
